X:1
T:Title
%%score { ( 1 4 ) | ( 2 3 ) }
L:1/8
M:4/4
K:F
V:1 treble nm="Grand Piano"
V:4 treble 
V:2 bass 
V:3 bass 
V:1
 z4 z2[Q:1/4=100] C2 | F3 F GE C2 | F2 F4 [EG]2 | A3 A BG E2 | c6 c2 | [Fd]3 [Fd] fe [Fd]2 | %6
 c2 A4 c2 | d3 d cA [CF]2 | [CEG]6 C2 | F3 F GE C2 | F2 F4 [CEG]2 | [CFA]3 [CFA] .[CEB]2 [G,CE]2 | %12
 [Fc]6 [_Ec]2 | dB[DF]d [Ac]2 [A,FA]2 | [GB]GCB A2 A2 | G^FG=B e2 [=Fd]2 |[M:3/4] [Ec]6 | %17
[M:1/4] c>^c |[M:4/4] dBEG d2 .[Ec]2 | A6 A>A | BGCE B2 E2 | FEFA dcc^c | dBEG d2 .[Ec]2 | %23
 AFCF B2 A2 |[M:3/4] .[=B,G]2[K:bass] .[F,B,^C]2 [G,_B,E]2 |[M:1/4] [E,B,C]2 | %26
[M:3/4][K:treble] [F,A,F]6 |[M:1/4] c>^c |[M:4/4] dBEG d2 .[Ec]2 | A6 A>A | BGCE B2 E2 | %31
 FEFA dcc^c | dBEG d2 .[Ec]2 | AFCF B2 A2 |[M:3/4] .[=B,G]2[K:bass] .[F,B,^C]2 [G,_B,E]2 | %35
[M:1/4][K:treble] [CG]2 |[M:3/4] [A,CF]6 |] %37
V:2
 z4 z2 [F,A,]2 | [F,A,C]3 [F,A,C] [C,B,C]2 [E,B,]2 | [F,A,C]2 [F,A,C]4 [C,C]2 | %3
 [F,CF]3 [F,CF] [G,CE]2 [B,C]2 | [A,CF]6[K:bass] [F,A,F]2 | z4 [B,,F]2 z2 | %6
 [F,A,F]2 [F,CF]4 [F,A,F]2 | [B,F]3 [B,E] [A,CF]2[K:bass] A,,2 | C,6 [E,B,]2 | %9
 [F,A,C]3 [F,A,C] [C,B,C]2 [E,B,]2 | [F,A,C]2 [F,A,C]4 C,2 | F,3 F, z G B,,2 | [A,,A,]6 [A,,F,]2 | %13
 [B,,F,]2 z[K:treble] B[K:bass] F,2 F,2 | z EB,[K:treble][G,G] [F,A,F]2[K:bass] [^F,C_E]2 | %15
 [G,CE]2 [G,CE]2 [G,,=B,G]2 [G,,G,]2 |[M:3/4] G,2 z2 z2 |[M:1/4] z2 | %18
[M:4/4] .[E,B,E]2 .[C,B,]2 .[E,B,E]2 .[C,B,]2 | [F,A,F]C,F,A, DC z2 | %20
 .[E,G,C]2 .[C,B,]2 .[E,G,C]2 .[C,B,C]2 | .[F,A,C]2 .[C,A,]2 [F,A,][F,A,] z2 | %22
 .[G,B,E]2 .[C,B,]2 .[G,B,E]2 .[C,B,]2 | .[F,A,C]2 .[C,F,A,]2 .[D,^F,D]2 .[D,F,C]2 | %24
[M:3/4] z D z D C,2 |[M:1/4] C,2 |[M:3/4] F,,6 |[M:1/4] z2 | %28
[M:4/4] .[E,B,E]2 .[C,B,]2 .[E,B,E]2 .[C,B,]2 | [F,A,F]C,F,A, DC z2 | %30
 .[E,G,C]2 .[C,B,]2 .[E,G,C]2 .[C,B,C]2 | .[F,A,C]2 .[C,A,]2 [F,A,][F,A,] z2 | %32
 .[G,B,E]2 .[C,B,]2 .[G,B,E]2 .[C,B,]2 | .[F,A,C]2 .[C,F,A,]2 .[D,^F,D]2 .[D,F,C]2 | %34
[M:3/4] z D z D C,2 |[M:1/4] [C,E,B,]2 |[M:3/4] [F,,F,]6 |] %37
V:3
 x8 | x8 | x8 | x8 | x6[K:bass] x2 | [B,,B,]3 [B,,B,] DC [D,B,]2 | x8 | x6[K:bass] x2 | x8 | x8 | %10
 x8 | z4 C,2 z2 | x8 | z2 [B,,F,]2[K:treble][K:bass] z4 | [C,C]2 C,2[K:treble] z4[K:bass] | x8 | %16
[M:3/4] C,6 |[M:1/4] x2 |[M:4/4] x8 | x8 | x8 | x8 | x8 | x8 |[M:3/4] [G,,F,]2 G,,2 z2 | %25
[M:1/4] x2 |[M:3/4] x6 |[M:1/4] x2 |[M:4/4] x8 | x8 | x8 | x8 | x8 | x8 |[M:3/4] [G,,F,]2 G,,2 z2 | %35
[M:1/4] x2 |[M:3/4] x6 |] %37
V:4
 x8 | x8 | x8 | x8 | x8 | x8 | x8 | x8 | x8 | x8 | x8 | x8 | x8 | D2 z2 z4 | x8 | x8 | %16
[M:3/4] z2 C>C C2 |[M:1/4] x2 |[M:4/4] x8 | x8 | x8 | x8 | x8 | x8 |[M:3/4] x2[K:bass] x4 | %25
[M:1/4] x2 |[M:3/4][K:treble] x6 |[M:1/4] x2 |[M:4/4] x8 | x8 | x8 | x8 | x8 | x8 | %34
[M:3/4] x2[K:bass] x4 |[M:1/4][K:treble] x2 |[M:3/4] x6 |] %37

